!!!COM: Bach, Johann Sebastian
!!!CDT: 1685/3//-1750/7/28/
!!!OTL@@DE: Sei Lob und Ehr' dem hoechsten Gut
!!!AGN: 4-Part Chorale
!!!SCT: BH 354
!!!SCT: BWV 117
**harm	**root	**kern	**kern	**kern	**kern
!	!	!bass	!tenor	!alto	!soprno
*	*Iorgan	*Iorgan	*Iorgan	*Iorgan	*Iorgan
*M4/4	*M4/4	*M4/4	*M4/4	*M4/4	*M4/4
*met(c)	*met(c)	*met(c)	*met(c)	*met(c)	*met(c)
*MM60	*MM60	*MM60	*MM60	*MM60	*MM60
*k[f#c#g#d#a#]	*k[f#c#g#d#a#]	*k[f#c#g#d#a#]	*k[f#c#g#d#a#]	*k[f#c#g#d#a#]	*k[f#c#g#d#a#]
*B:	*B:	*B:	*B:	*B:	*B:
*>[A,A,B]	*>[A,A,B]	*>[A,A,B]	*>[A,A,B]	*>[A,A,B]	*>[A,A,B]
*>A	*>A	*>A	*>A	*>A	*>A
Vb	4DD	4A#	8f#	4cc#	4ff#
.	.	.	8e	.	.
=1	=1	=1	=1	=1	=1
I	4GG	4B	4d#	4b	4ff#
V	4DD	4F#	4c#	8b	4ff#
.	.	.	.	8a#	.
I	4GG	4BB	4d#	4b	8ff#
.	.	.	.	.	8gg#
-VIIb	8FF	8C#	4c#	8e	4aa
iiio7	8BB	8D#	.	8f#	.
=2	=2	=2	=2	=2	=2
IV	4CC	4E	8B	8.g#	4gg#
.	.	.	8e	.	.
.	.	.	.	16a	.
I	4GG	4BB	8e	4b	4ff#
.	.	.	8d#	.	.
IV;	4CC;	4E;	4g#;	4b;	4ee;
Vb	4DD	4A#	4f#	4cc#	4ff#
=3	=3	=3	=3	=3	=3
I	4GG	4.B	8f#	4b	8dd#
.	.	.	8e	.	8cc#
I	8GG	.	8d#	4f#	8b
Vb	8DD	8A#	8c#	.	8cc#
vi	4EE	8G#	4B	8b	4dd#
.	.	8A#	.	8a#	.
V/V	4AA	8B	4c#	4g#	4ee#
.	.	8c#	.	.	.
=4	=4	=4	=4	=4	=4
Vb	8DD	8A#	8c#	8cc#	4ff#
V	8DD	8F#	4f#	8a#	.
V7/V	4AA	4c#	.	4b	4gg#
.	.	.	8e#	.	.
V;	4DD;	4F#;	4f#;	4a#;	4ff#;
=:|!	=:|!	=:|!	=:|!	=:|!	=:|!
*>B	*>B	*>B	*>B	*>B	*>B
I	4GG	8B	4f#	4dd#	4ff#
.	.	8c#	.	.	.
!!linebreak: 2
=5	=5	=5	=5	=5	=5
Ib	4GG	8d#	8f#	4dd#	4bb
.	.	8e#	8g#	.	.
V	4DD	4f#	8a#	8cc#	4aa#
.	.	.	8b	8dd#	.
V/V	4AA	4c#	8cc#	4ee#	4gg#
.	.	.	8b	.	.
Vb/iii	4FF#	4c##	8a#	4ee#	4aa#
.	.	.	8g#	.	.
=6	=6	=6	=6	=6	=6
Ib	4GG	8d#	4f#	4ff#	8bb
.	.	8B	.	.	8aa#
V/V	4AA	4c#	4e#	8cc#	4gg#
.	.	.	.	8b	.
V;	4DD;	4F#;	4c#;	4a#;	4ff#;
I	4GG	8B	4d#	4b	4ff#
.	.	8A#	.	.	.
=7	=7	=7	=7	=7	=7
vi	4EE	8G#	8d#	4b	4bb
.	.	8F#	8e	.	.
Ib	4GG	8E	4f#	4b	4ff#
.	.	8D#	.	.	.
IV	4CC	8E	4e	4b	4gg#
.	.	8F#	.	.	.
vi	4EE	4G#	8B	4b	8dd#
.	.	.	8g#	.	8ee
=8	=8	=8	=8	=8	=8
Vb	8DD	8A#	8f#	8cc#	4ff#
vii/ii	8GG#	8B#	8d#	8dd#	.
ii	4AA	4c#	8e	8g#	4ee
.	.	.	16g#	8cc#	.
.	.	.	16f##	.	.
VI;	4EE;	4G#;	4g#;	4b#;	4dd#;
I	4GG	4B	4f#	4b	4dd#
=9	=9	=9	=9	=9	=9
Vb	4DD	4A#	4f#	4cc#	8cc#
.	.	.	.	.	8dd#
IVb	8CC	8G#	4g#	8b	4ee
vii7	8FF#	8A#	.	8cc#	.
I	4GG	4B	4f#	8dd#	4dd#
.	.	.	.	8b	.
iib	4AA	4E	8e	4g#	4cc#
.	.	.	8d#	.	.
=10	=10	=10	=10	=10	=10
Vb/V	4AA	4E#	2c#	4g#	4g#
V	4DD	4F#	.	4f#	4a#
I;	4GG;	4BB;	4d#;	4f#;	4b;
==	==	==	==	==	==
*-	*-	*-	*-	*-	*-
!!!ONB: Near duplicate with erk248.krn
!!chor2scor: -l 2 -o %b.pmx
!!!YEC: Copyright 1994, David Huron
!!!YEC: Changes/Additions 2001 by Craig Stuart Sapp
!!!YEN: United States of America
!!!SMA: 371 Bach Chorales, edited by Ludwig Erk, C.F. Peters
!!!PDT: 1850, 1865
!!!ONB: Harmony and Root analysis done manually
